icons/image-4-filled.svg

<svg viewBox="0 0 24 24"><path fill="currentColor" fill-rule="evenodd" d="M1.4 6a4.6 4.6 0 0 1 4.6-4.6h12a4.6 4.6 0 0 1 4.6 4.6v12a4.6 4.6 0 0 1-4.6 4.6h-12a4.6 4.6 0 0 1-4.6-4.6zm4.6-2.6a2.6 2.6 0 0 0-2.6 2.6v12q0 .3 0 .5l4.3-4.2a1 1 0 0 1 1.4 0l1.7 1.7 4.7-4.7a1 1 0 0 1 1.4 0l3.7 3.7v-9a2.6 2.6 0 0 0-2.6-2.6zm-1 4.4a2.8 2.8 0 1 1 5.6 0 2.8 2.8 0 0 1-5.6 0Z" clip-rule="evenodd"/></svg>

<svg viewBox="0 0 24 24"><path fill="currentColor" fill-rule="evenodd" d="M1.4 6A4.6 4.6 0 0 1 6 1.4h12A4.6 4.6 0 0 1 22.6 6v12a4.6 4.6 0 0 1-4.6 4.6H6A4.6 4.6 0 0 1 1.4 18zM6 3.4A2.6 2.6 0 0 0 3.4 6v12.5l4.3-4.2a1 1 0 0 1 1.4 0l1.7 1.7 4.7-4.7a1 1 0 0 1 1.4 0l3.7 3.7V6A2.6 2.6 0 0 0 18 3.4zM5 7.8a2.8 2.8 0 1 1 5.6 0 2.8 2.8 0 0 1-5.6 0" clip-rule="evenodd"/></svg>
